public/images/logo/Vector.svg

<svg xmlns="http://www.w3.org/2000/svg" width="71" height="15">
  <path fill="#fff" d="M8.63272 10.2326c-.00227.5342-.11672 1.0617-.33564 1.547-.21892.4853-.53724.9172-.93353 1.2666-.78816.7075-1.80174 1.0985-2.85179 1.1003-.86409.0117-1.70836-.2642-2.40475-.786-.68446-.534-1.197763-1.2635-1.474713-2.0957l-.097629-.262 1.228072-.5711.11818.3039c.20853.5794.56296 1.0926 1.02767 1.488.46646.3743 1.04565.5724 1.63914.5606.69811.0053 1.37281-.2564 1.89092-.7335.2545-.2356.45811-.5227.59789-.8429.13977-.3202.21264-.6666.21397-1.0171-.0006-.24928-.05801-.495-.16769-.71777-.10968-.22277-.26864-.4165-.46433-.5659-.44435-.34519-.92731-.63539-1.43874-.86451l-.19526-.1205-2.2095-1.18935c-.4342-.24669-.79453-.60902-1.0425-1.04827-.24797-.43926-.37427-.93895-.36541-1.4457-.00896-.45944.07184-.91609.23769-1.34337.16585-.42727.41343-.81662.72832-1.14536.66142-.64449 1.54664-.994985 2.46128-.974534.66256.004599 1.31251.18518 1.88578.523944.55026.33205 1.00558.80535 1.32056 1.37273l.12332.23053-1.02767.84879-.18499-.29865c-.22215-.38968-.52997-.72148-.89921-.96929-.39244-.2391-.84295-.36075-1.3-.35104-.26462-.00143-.52686.05101-.77134.15425-.24449.10324-.46631.25519-.65247.44696-.18615.19177-.3329.4195-.43164.66983-.09874.25034-.14748.51826-.14338.78805-.0004.23263.05233.46217.154.67042s.2495.38951.43178.52941c.41268.32432.86529.59207 1.34625.7964l.10276.05239 2.3431 1.24174c.48251.26682.88244.66565 1.15477 1.1516.27233.48596.40626 1.03976.38673 1.5991Zm5.04078-7.93773h3.1549V13.9945h1.3874V2.29487h3.1549V.927379h-7.7075l.0103 1.367491ZM41.4669.927379h-1.3874V13.9945h4.4704V12.627h-3.083V.927379Zm10.1431 0h-1.4079V13.9945h4.496V12.627h-3.083L51.61.927379ZM27.0178 7.5605h6.4384V6.19301h-6.4384V7.5605Zm0-5.23943h6.4384V.927379h-6.4384V2.32107Zm0 11.69963h6.4384V12.627h-6.4384v1.3937ZM64.5587 0l-5.57 13.9945h1.4541l4.1107-10.3269 4.1107 10.3269h1.4542L64.5587 0Z"/>
</svg>

<svg width="71" height="15" viewBox="0 0 71 15"  xmlns="http://www.w3.org/2000/svg">
<path d="M8.63272 10.2326C8.63045 10.7668 8.516 11.2943 8.29708 11.7796C8.07816 12.2649 7.75984 12.6968 7.36355 13.0462C6.57539 13.7537 5.56181 14.1447 4.51176 14.1465C3.64767 14.1582 2.8034 13.8823 2.10701 13.3605C1.42255 12.8265 0.909247 12.097 0.632297 11.2648L0.534668 11.0028L1.76274 10.4317L1.88092 10.7356C2.08945 11.315 2.44388 11.8282 2.90859 12.2236C3.37505 12.5979 3.95424 12.796 4.54773 12.7842C5.24584 12.7895 5.92054 12.5278 6.43865 12.0507C6.69315 11.8151 6.89676 11.528 7.03654 11.2078C7.17631 10.8876 7.24918 10.5412 7.25051 10.1907C7.24991 9.94142 7.1925 9.6957 7.08282 9.47293C6.97314 9.25016 6.81418 9.05643 6.61849 8.90703C6.17414 8.56184 5.69118 8.27164 5.17975 8.04252L4.98449 7.92202L2.77499 6.73267C2.34079 6.48598 1.98046 6.12365 1.73249 5.6844C1.48452 5.24514 1.35822 4.74545 1.36708 4.2387C1.35812 3.77926 1.43892 3.32261 1.60477 2.89533C1.77062 2.46806 2.0182 2.07871 2.33309 1.74997C2.99451 1.10548 3.87973 0.754985 4.79437 0.775436C5.45693 0.780035 6.10688 0.960616 6.68015 1.29938C7.23041 1.63143 7.68573 2.10473 8.00071 2.67211L8.12403 2.90264L7.09636 3.75143L6.91137 3.45278C6.68922 3.0631 6.3814 2.7313 6.01216 2.48349C5.61972 2.24439 5.16921 2.12274 4.71216 2.13245C4.44754 2.13102 4.1853 2.18346 3.94082 2.2867C3.69633 2.38994 3.47451 2.54189 3.28835 2.73366C3.1022 2.92543 2.95545 3.15316 2.85671 3.40349C2.75797 3.65383 2.70923 3.92175 2.71333 4.19154C2.71293 4.42417 2.76566 4.65371 2.86733 4.86196C2.969 5.07021 3.11683 5.25147 3.29911 5.39137C3.71179 5.71569 4.1644 5.98344 4.64536 6.18777L4.74812 6.24016L7.09122 7.4819C7.57373 7.74872 7.97366 8.14755 8.24599 8.6335C8.51832 9.11946 8.65225 9.67326 8.63272 10.2326ZM13.6735 2.29487H16.8284V13.9945H18.2158V2.29487H21.3707V0.927379H13.6632L13.6735 2.29487ZM41.4669 0.927379H40.0795V13.9945H44.5499V12.627H41.4669V0.927379ZM51.61 0.927379H50.2021V13.9945H54.6981V12.627H51.6151L51.61 0.927379ZM27.0178 7.5605H33.4562V6.19301H27.0178V7.5605ZM27.0178 2.32107H33.4562V0.927379H27.0178V2.32107ZM27.0178 14.0207H33.4562V12.627H27.0178V14.0207ZM64.5587 0L58.9887 13.9945H60.4428L64.5535 3.6676L68.6642 13.9945H70.1184L64.5587 0Z" fill="white"/>
</svg>
